X:13
T:Les anguilles [revoir rythme]
R:
S:
N:
A:Champagne
G:
O:France
Z:<anamnese@laposte.net>
M:2/4
L:1/8
Q:1/4=135
K:C
cc c>G | cc c2 | e>d c>d | e2 c2 :: cB cd | edcB | dc BG | G>G :: e2d2 | ee c2 |
ed cd | e2c2 | e2 dd | ee c2 | ee ec | ed e2 c2 e2 | e2 c2 :| "fin" c/c/c/c/ c c/c/ | dd G>G :| c2 e2 | e2 c2 ||
